images/LOGOS_CLIENTES/MACRO.svg

<svg width="111" height="25" viewBox="0 0 111 25" fill="none" xmlns="http://www.w3.org/2000/svg">
<path fill-rule="evenodd" clip-rule="evenodd" d="M19.2386 6.74072C12.6441 6.74072 7.17642 11.8536 6.80078 18.3647C6.80078 18.5316 6.84252 18.6777 6.96773 18.8029C7.07208 18.9281 7.23903 18.9907 7.40598 18.9907H11.8093C12.1223 18.9907 12.3728 18.7612 12.4145 18.4273C12.7484 14.9213 15.6909 12.271 19.2595 12.271C22.8281 12.271 25.7706 14.9213 26.1045 18.4273C26.1253 18.7403 26.3966 18.9907 26.7097 18.9907H31.0921C31.2591 18.9907 31.426 18.9281 31.5304 18.8029C31.6347 18.6777 31.6973 18.5316 31.6973 18.3647C31.3008 11.8327 25.8332 6.74072 19.2386 6.74072Z" fill="black"/>
<path fill-rule="evenodd" clip-rule="evenodd" d="M19.2394 13.4812C16.13 13.4812 13.584 15.9855 13.584 19.0741C13.584 22.1626 16.13 24.6669 19.2394 24.6669C22.3489 24.6669 24.8949 22.1626 24.8949 19.0741C24.8949 15.9855 22.3489 13.4812 19.2394 13.4812Z" fill="black"/>
<path fill-rule="evenodd" clip-rule="evenodd" d="M19.2391 0C14.2306 0 9.47251 1.89907 5.8622 5.34243C2.27275 8.78579 0.185867 13.3978 -0.00195312 18.3437C-0.00195312 18.5107 0.0606537 18.6568 0.164998 18.782C0.290211 18.9072 0.436293 18.9698 0.603244 18.9698H4.96483C5.27787 18.9698 5.54916 18.7194 5.57003 18.4063C5.9248 11.1648 11.9142 5.50938 19.2391 5.50938C26.5432 5.50938 32.5535 11.1648 32.9082 18.4063C32.9291 18.7194 33.1795 18.9698 33.5134 18.9698H37.875C38.042 18.9698 38.1881 18.9072 38.3133 18.782C38.4385 18.6568 38.4802 18.5107 38.4802 18.3437C38.2924 13.3978 36.2055 8.78579 32.6161 5.34243C29.0058 1.91993 24.2477 0 19.2391 0Z" fill="black"/>
<path fill-rule="evenodd" clip-rule="evenodd" d="M61.1439 2.4209H56.1353C56.0519 2.4209 55.9893 2.46264 55.9893 2.54611L52.8589 14.7335H52.8172L49.7912 2.54611C49.7703 2.48351 49.7077 2.4209 49.6451 2.4209H44.4279C44.3444 2.4209 44.2818 2.4835 44.261 2.56698L43.1758 18.6569C43.1758 18.6986 43.1966 18.7403 43.2175 18.7821C43.2384 18.8238 43.301 18.8238 43.3427 18.8238H46.0557C46.1392 18.8238 46.2018 18.7612 46.2226 18.6777L47.0156 5.27993H47.0365L50.6051 18.7195C50.626 18.7821 50.6886 18.8447 50.7512 18.8447H54.4867C54.5493 18.8447 54.6119 18.8029 54.6328 18.7195L58.3266 5.27993H58.3474L58.9318 18.6777C58.9318 18.7612 59.0152 18.8238 59.0987 18.8238H62.2499C62.2917 18.8238 62.3334 18.8029 62.3751 18.7821C62.396 18.7403 62.4169 18.6986 62.4169 18.6569L61.3317 2.56698C61.3108 2.4835 61.2273 2.4209 61.1439 2.4209Z" fill="black"/>
<path fill-rule="evenodd" clip-rule="evenodd" d="M69.2199 6.19807C67.926 6.19807 65.9435 6.40676 64.9 6.63632C64.8374 6.65719 64.7748 6.71979 64.7748 6.7824V9.0571C64.7748 9.09884 64.7957 9.14058 64.8374 9.18232C64.8792 9.20319 64.9209 9.22406 64.9626 9.20319C65.6931 9.03624 67.3626 8.76494 69.0321 8.76494C71.8076 8.76494 71.8911 9.43274 71.8911 11.1857H71.6407C69.1364 11.1857 66.2983 11.1857 64.8583 12.6048C64.2531 13.1891 63.9609 14.003 63.9609 15.0047C63.9609 18.5107 66.7365 19.0324 69.7416 19.0742C70.0129 19.0742 70.2842 19.095 70.5555 19.095C71.9537 19.095 73.4145 18.9907 75.3762 18.782C75.4597 18.782 75.5223 18.6985 75.5223 18.615V10.3718C75.5223 9.14058 75.1675 8.18061 74.4788 7.51281C73.2684 6.32328 71.2442 6.1772 69.2199 6.19807ZM71.8911 13.6065V16.549C71.265 16.6325 70.7433 16.6742 70.1381 16.6742C68.719 16.6742 67.7173 16.5699 67.7173 15.1299C67.7173 13.69 68.719 13.5856 70.1381 13.5856C70.9937 13.5856 71.5781 13.5856 71.8911 13.6065Z" fill="black"/>
<path fill-rule="evenodd" clip-rule="evenodd" d="M87.6677 16.1943L87.459 16.2152C86.8747 16.2986 86.3112 16.3612 85.3512 16.3612C82.1792 16.3612 80.8853 15.2552 80.8853 12.5631C80.8853 9.8919 82.1374 8.82759 85.3512 8.82759C86.0816 8.82759 86.7077 8.8902 87.5842 8.99454C87.6259 8.99454 87.6677 8.99454 87.7094 8.9528C87.7512 8.93194 87.772 8.8902 87.772 8.82759V6.6781C87.772 6.59462 87.7303 6.53202 87.6468 6.53202C86.6034 6.30246 85.4138 6.17725 84.0782 6.17725C79.2784 6.17725 77.1289 9.30757 77.1289 12.3962C77.1289 16.5699 79.7793 19.0533 84.2243 19.0533C85.5599 19.0533 86.666 18.9281 87.7512 18.6568C87.8138 18.636 87.8764 18.5733 87.8764 18.5107V16.3195C87.8764 16.2778 87.8555 16.236 87.8138 16.1943C87.7512 16.1943 87.7094 16.1943 87.6677 16.1943Z" fill="black"/>
<path fill-rule="evenodd" clip-rule="evenodd" d="M97.664 6.51097C97.664 6.4275 97.6014 6.34402 97.4971 6.34402H97.2884C96.2032 6.34402 94.8676 6.32315 92.9059 7.4292V6.59445C92.9059 6.51097 92.8433 6.4275 92.739 6.4275H89.8173C89.7339 6.4275 89.6504 6.4901 89.6504 6.59445V18.6775C89.6504 18.761 89.713 18.8445 89.8173 18.8445H93.1146C93.1981 18.8445 93.2816 18.7819 93.2816 18.6775V10.0587C94.3668 9.34914 96.1406 9.34914 97.3301 9.34914H97.518C97.6014 9.34914 97.6849 9.28653 97.6849 9.18219L97.664 6.51097Z" fill="black"/>
<path fill-rule="evenodd" clip-rule="evenodd" d="M104.302 6.17725C100.191 6.17725 97.6445 8.66064 97.6445 12.6257C97.6445 16.6117 100.191 19.0742 104.302 19.0742C108.183 19.0742 110.917 16.4239 110.917 12.6257C110.917 8.63977 108.371 6.17725 104.302 6.17725ZM107.161 12.6675C107.161 15.4221 106.326 16.5491 104.281 16.5491C102.215 16.5491 101.38 15.4221 101.38 12.6675C101.38 9.8919 102.215 8.76498 104.281 8.76498C106.326 8.76498 107.161 9.8919 107.161 12.6675Z" fill="black"/>
</svg>

<svg width="111" height="25" fill="none" xmlns="http://www.w3.org/2000/svg"><path fill-rule="evenodd" clip-rule="evenodd" d="M19.239 6.74c-6.595 0-12.063 5.114-12.438 11.625a.58.58 0 0 0 .167.438.568.568 0 0 0 .438.188h4.403c.313 0 .564-.23.606-.564.333-3.506 3.276-6.156 6.845-6.156 3.568 0 6.51 2.65 6.845 6.156.02.313.292.564.605.564h4.382a.569.569 0 0 0 .438-.188.674.674 0 0 0 .167-.438C31.301 11.833 25.833 6.74 19.24 6.74Z" fill="#000"/><path fill-rule="evenodd" clip-rule="evenodd" d="M19.24 13.481c-3.11 0-5.656 2.505-5.656 5.593 0 3.089 2.546 5.593 5.655 5.593 3.11 0 5.656-2.504 5.656-5.593s-2.546-5.593-5.656-5.593Z" fill="#000"/><path fill-rule="evenodd" clip-rule="evenodd" d="M19.24 0C14.23 0 9.472 1.9 5.861 5.342 2.272 8.786.186 13.398-.002 18.344c0 .167.063.313.167.438a.6.6 0 0 0 .438.188h4.362c.313 0 .584-.25.605-.564.355-7.241 6.344-12.897 13.67-12.897 7.303 0 13.314 5.656 13.668 12.897.021.313.271.564.605.564h4.362a.6.6 0 0 0 .438-.188.58.58 0 0 0 .167-.438c-.188-4.946-2.274-9.558-5.864-13.002A19.4 19.4 0 0 0 19.24 0ZM61.144 2.42h-5.009c-.083 0-.146.043-.146.126l-3.13 12.188h-.042L49.791 2.545c-.02-.062-.083-.125-.146-.125h-5.217c-.084 0-.146.063-.167.146l-1.085 16.09c0 .042.02.083.041.125.021.042.084.042.126.042h2.713c.083 0 .146-.063.167-.146l.793-13.398h.02l3.57 13.44c.02.062.083.125.145.125h3.736c.062 0 .125-.042.146-.125l3.694-13.44h.02l.585 13.398c0 .083.083.146.167.146h3.15c.043 0 .084-.021.126-.042.021-.042.042-.083.042-.125l-1.085-16.09a.2.2 0 0 0-.188-.146ZM69.22 6.198c-1.294 0-3.276.209-4.32.438-.063.021-.125.084-.125.146v2.275c0 .042.02.084.062.125.042.021.084.042.126.021.73-.167 2.4-.438 4.07-.438 2.775 0 2.858.668 2.858 2.42h-.25c-2.505 0-5.343 0-6.783 1.42-.605.584-.897 1.398-.897 2.4 0 3.506 2.776 4.027 5.78 4.07.272 0 .543.02.814.02 1.399 0 2.86-.104 4.821-.313.084 0 .146-.084.146-.167v-8.243c0-1.231-.355-2.191-1.043-2.86-1.21-1.189-3.235-1.335-5.26-1.314Zm2.671 7.409v2.942a12.6 12.6 0 0 1-1.753.125c-1.419 0-2.42-.104-2.42-1.544s1.001-1.544 2.42-1.544c.856 0 1.44 0 1.753.02ZM87.668 16.194l-.209.021c-.584.084-1.148.146-2.108.146-3.172 0-4.466-1.106-4.466-3.798 0-2.671 1.252-3.735 4.466-3.735.73 0 1.357.062 2.233.167.042 0 .084 0 .125-.042.042-.021.063-.063.063-.125v-2.15c0-.083-.042-.146-.125-.146-1.044-.23-2.233-.355-3.569-.355-4.8 0-6.95 3.13-6.95 6.22 0 4.173 2.651 6.656 7.096 6.656 1.336 0 2.442-.125 3.527-.396.063-.021.125-.084.125-.146V16.32c0-.042-.02-.084-.062-.126h-.146ZM97.664 6.511a.165.165 0 0 0-.167-.167h-.209c-1.085 0-2.42-.02-4.382 1.085v-.835a.165.165 0 0 0-.167-.167h-2.922a.165.165 0 0 0-.167.167v12.083c0 .084.063.168.167.168h3.298a.165.165 0 0 0 .167-.168V10.06c1.085-.71 2.859-.71 4.048-.71h.188a.165.165 0 0 0 .167-.167l-.021-2.671ZM104.302 6.177c-4.111 0-6.658 2.484-6.658 6.449 0 3.986 2.547 6.448 6.658 6.448 3.881 0 6.615-2.65 6.615-6.448 0-3.986-2.546-6.449-6.615-6.449Zm2.859 6.49c0 2.755-.835 3.882-2.88 3.882-2.066 0-2.901-1.127-2.901-3.881 0-2.776.835-3.903 2.901-3.903 2.045 0 2.88 1.127 2.88 3.902Z" fill="#000"/></svg>
